X: 1336
T: Mahzun Duruşun
C: Ekrem Güyer
O: Turkey
F: http://compmusic.upf.edu/node/140
N: huzzam--sarki--senginsemai--mahzun_durusun--ekrem_guyer
N: makam= huzzam
N: form= sarki
N: usul= senginsemai = 6/4
M: 6/4
L: 1/16
K: C _1/4B _3/4e ^3/4f 
Q: 1/4=66
%%MIDI tuningsystem comma53
c3d d4 d3c B2^f2 _2/4e2de d4  | z2^f2 _2/4e2d2 d3c c3B dcB^A B4  | 
w:  Mah *  zun  du *  ru *  şun   |  â *  *  şı *  ka  *  bin   | 
BcB2 cdc2 d2_2/4e2 ^f3e e3d c2ed  | \
w:  öm *  *  *  *  *  re  *  be *  del  | 
d8 d3/2_2/4e/^fe dcB^A B8  | 
w:  dir   SAZ  | 
c3d d4 d3c B2^f2 _2/4e2de d4  | z2^f2 _2/4e2d2 d3c c3B dcB^A B4  | 
w:  Mah *  zun  du *  ru *  şun   |  â *  *  şı *  ka  *  bin   | 
BcB2 cdc2 d2_2/4e2 ^f3e e3d c2ed  | \
w:  öm *  *  *  *  *  re  *  be *  del  | 
d8 d3/2_2/4e/^fe dcBc d8  | 
w:  dir   SAZ  | 
d4 g4 ^f4 a4 g2f2 _2/4e2d2  | d_2/4e^fg a3/2g/fa gf2e feed d8  | 
w:  Sev dâ ze de yim   |  gön *  *  *  *  *  *  *  lü *  *  me  *  *  *  bir   | 
z2g2 ^f2_2/4e2 d2dc B4 (3fef(3ged dccB  | \
w:  baş *  *  ka *  *  sı  el  | 
B8 d3/2_2/4e/^fe dcBc d8  | 
w:  dir   SAZ  | 
d4 g4 ^f4 a4 g2f2 _2/4e2d2  | d_2/4e^fg a3/2g/fa gf2e feed d8  | 
w:  Sev dâ ze de yim   |  gön *  *  *  *  *  *  *  lü *  *  me  *  *  *  bir   | 
z2g2 ^f2_2/4e2 d2dc B4 (3fef(3ged dccB  | \
w:  baş *  *  ka *  *  sı  el  | 
B8 ^f2fg f^ede f8  | 
w:  dir   SAZ  | 
_2/4e3^f f4 f4 g2^a2 b8  | z2c'2 _b2a2 ag^fg f_2/4eed d8  | \
w:  Cevr_ *  et me  sa *  kın   |  dî *  *  de *  *  *  le *  *  *  rim   | 
d2g2 ^f2a2 g2f2 _2/4e2d2 f2ef (3gfeed  | 
w:  lût *  *  *  fu *  na  *  hay  | 
d8 ^f2fg f^ede f8  | _2/4e3^f f4 f4 g2^a2 b8  | \
w:  ran   SAZ  |  Cevr_ *  et me  sa *  kın   | 
z2c'2 _b2a2 ag^fg f_2/4eed d8  | 
w:  dî *  *  de *  *  *  le *  *  *  rim   | 
d2g2 ^f2a2 g2f2 _2/4e2d2 f2ef (3gfeed  | \
w:  lût *  *  *  fu *  na  *  hay  | 
d8 d3/2_2/4e/^fe dcBc d8  | 
w:  ran   SAZ  | 
d4 g4 ^f4 a4 g2f2 _2/4e2d2  | d_2/4e^fg a3/2g/fa gf2e feed d8  | 
w:  Sev dâ ze de yim   |  gön *  *  *  *  *  *  *  lü *  *  me  *  *  *  bir   | 
z2g2 ^f2_2/4e2 d2dc B4 (3fef(3ged dccB  | \
w:  baş *  *  ka *  *  sı  el  | 
B8 d3/2_2/4e/^fe dcBc d8  | 
w:  dir   SAZ  | 
d4 g4 ^f4 a4 g2f2 _2/4e2d2  | d_2/4e^fg a3/2g/fa gf2e feed d8  | 
w:  Sev dâ ze de yim   |  gön *  *  *  *  *  *  *  lü *  *  me  *  *  *  bir   | 
z2g2 ^f2_2/4e2 d2dc B4 (3fef(3ged dccB  | \
w:  baş *  *  ka *  *  sı  el  | 
B8 |
w:  dir    | 


